X:1
T:Inverary Castle
M:C
L:1/16
R:Strathspey
C:Capt. Fraser
B: Joseph Lowe - Lowe's Collection of Reels, Strathspeys and Jigs, 
B:book 6 (1844-45, p. 3)
Z:AK/Fiddler’s Companion
K:A
CF3 ~F4 CF3A3F|CF3F3G AB3~c4|CF3 ~F4 C3FA3F|E3CA,3B, CE3 E4:|
c2|A3Bcf3 ec3~c3B|A3Bcf3 (ag).f.^e f4|A3Bcf3 ec3~c3f|e3BG3E GB3~B4|
A3Bc3f ec3~c3B|A3Bc3f agf^e fg3|a3cBA3 G3FED3|C3A,E3A, C2E3E||

